X:1
T:I Have a Savior
T:I Have a Savior
T:Robert Harkness
T:Robert Harkness, 1909
T:Public Domain Courtesy of the Cyber Hymnal™
C:Robert Harkness
Z:Public Domain
Z:Courtesy of the Cyber Hymnal™
%%score ( 1 2 ) ( 3 4 )
L:1/8
Q:1/4=115
M:4/4
K:Ab
V:1 treble 
V:2 treble 
V:3 bass 
V:4 bass 
V:1
 [CA]4 [CA]2 [CF]2 | [DG]4 [DG]4 | [CF]4 [CF]2 C2 | E8 | [CA]4 [FA]2 F2 | [EG]4 [EG]4 | %6
w: 1.~I have a|Sav- ior,|He died for|me|In cru- el|an- guish|
w: 2.~I have a|keep- er,|He now pre-|vails,|I fear no|e- vil|
w: 3.~I have a|mas- ter,|He bids me|go|Res- cue lost|sin- ners|
 [EG]4 [=B,E]2 [B,=D]2 | G8 | [CA]4 [Dd]2 [Ec]2 | [Ec]4 [DB]4 | [CA]4 [Fc]2 [FA]2 | [=EG]6 z2 | %12
w: on Cal- v’ry’s|tree.|I do not|mer- it|such love di-|vine,|
w: what- e’er as-|sails.|His arms en-|fold me,|safe and se-|cure,|
w: from sin and|woe.|I love to|serve Him,|this mas- ter|true,|
 [DF]4 [=B,G]2 [B,A]2 | [CA]4 [CE]4 | [=DF]4 [DG]2 [DA]2 | [DB]6 z2 || %16
w: On- ly God’s|mer- cy|makes Jes- us|mine.|
w: In His blest|keep- ing|vic- t’ry is|sure.|
w: Now I am|will- ing|His will to|do.|
"^Refrain" [CA]4 [CA]2 [CF]2 | [DG]4 [DG]4 | [EB]4 [EG]2 E2 | [=Ec]6 z2 | [Fe]4 [Fd]2 [Ec]2 | %21
w: |||||
w: Je- sus, my|Sav- ior,|I come to|Thee|In full sur-|
w: |||||
 [=Dc]4 [DF]4 | [DG]4 [Ed]2 [DG]2 | [CA]6 z2 |] %24
w: |||
w: ren- der|Thine own to|be.|
w: |||
V:2
 x8 | x8 | x6 C2 | (B,2 D2 C2 B,2) | x6 F2 | x8 | x8 | (C4 D4) | x8 | x8 | x8 | x8 | x8 | x8 | x8 | %15
 x8 || x8 | x8 | x6 E2 | x8 | x8 | x8 | x8 | x8 |] %24
V:3
 [A,,E,]4 [A,,E,]2 [A,,E,]2 | [B,,E,]4 [E,B,]4 | [F,A,]4 [F,A,]2 [F,A,]2 | (G,2 B,2 A,2 G,2) | %4
 [F,A,]4 [F,C]2 [F,A,]2 | [G,C]4 [G,C]4 | [G,,=B,]4 [G,,G,]2 [G,,F,]2 | ([C,E,]4 B,,4) | %8
 [A,,E,]4 [A,,F,]2 [A,,A,]2 | [E,A,]4 G,4 | F,4 [F,A,]2 [F,C]2 | (C4 B,4) | %12
 [D,A,]4 [=D,F,]2 [D,F,]2 | E,4 [E,A,]4 | [B,,A,]4 [B,,G,]2 [B,,F,]2 | [E,G,]6 z2 || %16
 [A,,A,]4 [A,,E,]2 [A,,E,]2 | [B,,E,]4 [E,B,]4 | [E,G,]4 [E,B,]2 [D,G,]2 | [C,G,]6 z2 | %20
 [F,=A,]4 [F,B,]2 [F,A,]2 | [B,,A,]4 [B,,A,]4 | [E,B,]4 [E,G,]2 [E,B,]2 | [A,,A,]6 z2 |] %24
V:4
 x8 | x8 | x8 | E,8 | x8 | x8 | x8 | x4 B,,4 | x8 | x4 (E,2 =E,2) | F,4 x4 | C,6 x2 | x8 | E,4 x4 | %14
 x8 | x8 || x8 | x8 | x8 | x8 | x8 | x8 | x8 | x8 |] %24

